!!!ONB: MCCC : ILB0187_02 : Extracted Monophonic Melody
!!!COM: Beethoven, Ludwig van
!!!OPR: Piano Sonata No.26
!!!OMV: 2
!!!SCT: Op.81a
!!!ODT: 1809///
**kern
*thru
*staff1
*clefG2
*k[b-e-a-]
*c:
*M2/4
*MM54
=1
16.g
32f#
4.a
=2
16.g
32f#
4a
16.a
32ee-
=3
8ee-
16.dd
32g
8g
16.f#
32a
=4
16a
8.b[
8b]
16b
16cc
=5
16.ee-
32dd
4.ff
=6
16.ee-
32dd
4ff
16.dd
32aa-
=7
8aa-
16.gg
32cc
8cc
16.b
32dd
=8
16dd
[8.ee-
16ee-]
16a-
16g
16a-
=9
8cc
16.b-
32cc
[8dd-
32dd-]
32cc
32bb-
32gg
=10
8.gg
32bb-
32aa-
8r
16a-
16g
=11
16.g
32f#
4a
16.a
32g
=12
16.g
32f#
16.a
32g
16.b-
32a
32f#
32a
32cc
32ee-
=13
32dd
32cc
32b-
32a
32cc
32ff#
32aa
32ccc
32bb-
32aa
32gg
32ff#
32aa
32ccc
32ddd
32eee-
=14
32ddd
32ccc
32bb-
32aa
32bb-
32aa
32gg
32ff#
32ccc
32aa
32gg
32ff#
32aa
32ff#
32ee-
32dd
=15
8dd
[8a
8a]
16b
16g
=16
8g
16f#
16g
16a-
16b
32cc
32cc#
32cc#
32dd
=17
32cc#
32dd
32ee
32dd
[8a
32a]
64b
64a
64b
64a
64cc
64b
64cc
64b
64dd
64cc#
128dd
128cc#
128ee
128dd
32g
=18
8g
16f#
16g
16a
16b-
32cc
32cc#
32cc#
32dd
=19
16dd
16bb-
16r
16bb-
16r
16aa
16r
16gg
=20
16r
16gg
16r
16gg
16r
16ff
16r
16ee-
=21
16.ff
32ee
4.gg
=22
16ff
32ee
4gg
16.gg
16ddd-
=23
8ddd-
16.ccc
32ff
8ff
16.ee
32gg
=24
16gg
[8.aa-
16aa-]
16dd-
16cc
16dd-
=25
8ee-
16.ee-
32ff
[8gg-
32gg-]
32ff
32eee-
32ccc
=26
8.ccc
32eee-
32ddd-
8r
16g-
16f
=27
16.f
32e
4g
16.g
32f
=28
16.f
32e
16.g
32f
16.a-
32g
32e
32g
32b-
32dd-
=29
32cc
32b-
32a-
32g
32b-
32ee
32gg
32bb-
32aa-
32gg
32ff
32ee
32gg
32bb-
32ccc
32ddd-
=30
32ccc
32bb-
32aa-
32gg
32bb-
32gg
32ff
32ee
32bb-
32gg
32ff
32ee
*8va
32ggg
32eee
32ddd-
32ccc
*X8va
=31
8ccc
[8gg
8gg]
16aa
16ff
=32
8ff
16ee
16ff
16gg
16aa
32bb-
32bb
32bb
32ccc
=33
32bb
32ccc
32ddd
32ccc
[8gg
32gg]
64aa
64gg
64aa
64gg
64bb-
64aa
64bb-
64aa
64ccc
64bb-
64ccc
64ddd
64fff
64ff
=34
8ff
16ee
16ff
16gg
16aa-
32bb-
32bb
32bb
32ccc
=35
16ccc
16aaa-
16r
16aa-
16r
16gg
16r
16ff
=36
16ff
16fff
16r
16ff
16r
16ee-
16r
16dd-
=37
16.cc
32b
4.dd
=38
16.cc
32b
16dd
16r
16.dd
32cc
16ee-
16r
=39
16.ee-
32dd
4.ff
=40
16.ee-
32dd
16ff
16r
16.ff
32ee-
16gg
16r
=41
16.gg
32ff
8aa-[
16.aa-]
32ff
[8ddd
=42
16.ddd]
32aa-
8fff[
16.fff]
32ddd
8aaa-
==
*-
